public/images/ico_case.svg

<svg height="19" viewBox="0 0 14 19" width="14" xmlns="http://www.w3.org/2000/svg"><path d="m15 6.66666667h-.8333333v-1.66666667c0-2.3-1.8666667-4.16666667-4.1666667-4.16666667s-4.16666667 1.86666667-4.16666667 4.16666667v1.66666667h-.83333333c-.91666667 0-1.66666667.75-1.66666667 1.66666666v8.33333337c0 .9166666.75 1.6666666 1.66666667 1.6666666h10c.9166667 0 1.6666667-.75 1.6666667-1.6666666v-8.33333337c0-.91666666-.75-1.66666666-1.6666667-1.66666666zm-5 7.50000003c-.91666667 0-1.66666667-.75-1.66666667-1.6666667s.75-1.6666667 1.66666667-1.6666667c.9166667 0 1.6666667.75 1.6666667 1.6666667s-.75 1.6666667-1.6666667 1.6666667zm2.5833333-7.50000003h-5.16666663v-1.66666667c0-1.425 1.15833333-2.58333333 2.58333333-2.58333333s2.5833333 1.15833333 2.5833333 2.58333333z" fill="#fff" fill-rule="evenodd" transform="translate(-3)"/></svg>

<?xml version="1.0" encoding="UTF-8" standalone="no"?>
<svg width="14px" height="19px" viewBox="0 0 14 19" version="1.1" xmlns="http://www.w3.org/2000/svg" xmlns:xlink="http://www.w3.org/1999/xlink" xmlns:sketch="http://www.bohemiancoding.com/sketch/ns">
    <!-- Generator: Sketch 3.2.2 (9983) - http://www.bohemiancoding.com/sketch -->
    <title>Shape</title>
    <desc>Created with Sketch.</desc>
    <defs></defs>
    <g id="Desktop" stroke="none" stroke-width="1" fill="none" fill-rule="evenodd" sketch:type="MSPage">
        <g id="2---Secret-Data" sketch:type="MSArtboardGroup" transform="translate(-290.000000, -605.000000)" fill="#FFFFFF">
            <g id="Card" sketch:type="MSLayerGroup" transform="translate(265.000000, 160.000000)">
                <g id="ic_lock_24px" transform="translate(22.000000, 445.000000)" sketch:type="MSShapeGroup">
                    <path d="M15,6.66666667 L14.1666667,6.66666667 L14.1666667,5 C14.1666667,2.7 12.3,0.833333333 10,0.833333333 C7.7,0.833333333 5.83333333,2.7 5.83333333,5 L5.83333333,6.66666667 L5,6.66666667 C4.08333333,6.66666667 3.33333333,7.41666667 3.33333333,8.33333333 L3.33333333,16.6666667 C3.33333333,17.5833333 4.08333333,18.3333333 5,18.3333333 L15,18.3333333 C15.9166667,18.3333333 16.6666667,17.5833333 16.6666667,16.6666667 L16.6666667,8.33333333 C16.6666667,7.41666667 15.9166667,6.66666667 15,6.66666667 L15,6.66666667 Z M10,14.1666667 C9.08333333,14.1666667 8.33333333,13.4166667 8.33333333,12.5 C8.33333333,11.5833333 9.08333333,10.8333333 10,10.8333333 C10.9166667,10.8333333 11.6666667,11.5833333 11.6666667,12.5 C11.6666667,13.4166667 10.9166667,14.1666667 10,14.1666667 L10,14.1666667 Z M12.5833333,6.66666667 L7.41666667,6.66666667 L7.41666667,5 C7.41666667,3.575 8.575,2.41666667 10,2.41666667 C11.425,2.41666667 12.5833333,3.575 12.5833333,5 L12.5833333,6.66666667 L12.5833333,6.66666667 Z" id="Shape"></path>
                </g>
            </g>
        </g>
    </g>
</svg>
